X:1
T:My Bonnie Lies Over the Ocean
C:Traditional Scottish
M:3/4
L:1/4
Q:100
K:C
%% Features clear interval jumps - great for interval practice
G | c c B | A A G | E E D | C2 G |
c c B | A A G | E G E | D2 G |
c c B | A2 A | G A B | c3 |
e e d | c2 c | B A G | c3 |]
